X: 20438
T: John James'
R: reel
M: 4/4
K: Eminor
|:EC C/C/C EFGB|A2>B2 AGFD|EC C/C/C EFGB|AFDF GEFD|
EC C/C/C EFGB|A2>B2 AGFD|EC C/C/C EFGB|1 AFDF GEFD:|2 AFDF EFGA||
|:B/c/d AF2< E2G|FDA,B, DEFA|BdAF EeeE|dE^cE BAFA|
B/B/B AF2< E2E|FDA,B, DEFD|EC C/C/C EFGB|1 AFDF EFGA:|2 AFDF GEFD||

